autogermania/dist/img/svg/transmission-automatic.svg

<svg xmlns="http://www.w3.org/2000/svg" width="24" height="26"><path fill-rule="evenodd" d="M23.545 15.706a1.198 1.198 0 01-.586.36c-.223.062-.451.09-.682.09h-1.371v-.155l.001-3.402c0-.168 0-.168.172-.168.424 0 .85-.008 1.274.003.23.005.462.025.681.1.192.066.36.179.495.333.184.21.31.449.377.725.072.301.11.604.086.911-.033.442-.141.859-.447 1.203zm-.314-1.658a1.38 1.38 0 00-.151-.607.738.738 0 00-.182-.216c-.144-.123-.321-.151-.492-.169-.221-.022-.446-.008-.668-.01-.052 0-.075.027-.077.076a3.336 3.336 0 00-.002.1v2.156c0 .151.006.158.151.158.279-.001.561.015.837-.046.193-.042.348-.138.437-.323.1-.207.146-.428.148-.658.001-.154.002-.307-.001-.461zm-3.332-5.421c-.09.002-.139-.032-.187-.107-.234-.357-.474-.709-.713-1.063-.025-.038-.055-.072-.081-.109a.63.63 0 00-.439-.268c-.101-.015-.206-.01-.309-.014-.061-.001-.09.031-.09.092l-.001.087.001 1.21c0 .052-.007.105-.011.163h-.711c-.004-.051-.009-.096-.009-.139l-.002-3.391c0-.171.004-.175.173-.175.446-.001.891-.002 1.337.002.206.003.414.004.618.029.406.049.701.221.847.677.093.293.069.587-.086.862a.926.926 0 01-.533.424c-.084.028-.171.049-.258.073l-.021.033.072.046c.248.16.424.387.58.632.17.265.338.532.506.799.021.035.035.073.059.122-.038.005-.068.011-.099.011-.214.002-.429-.003-.643.004zm-.391-2.32a.513.513 0 00.074-.468c-.055-.17-.157-.266-.327-.286-.199-.023-.4-.036-.6-.054l-.001.014h-.408c-.137 0-.152.013-.153.147-.001.227-.001.456.002.684.001.132.019.146.154.149.338.005.675-.003 1.012-.044a.328.328 0 00.247-.142zm-.353-3.814l-.953.04c-.113.004-.122.011-.123.134l-.001 1.073c0 .033.002.067-.001.1-.007.078-.019.093-.099.094-.169.002-.339.002-.508.002-.112-.001-.12-.009-.121-.123a2330.248 2330.248 0 010-3.405V.222c.065-.004.105-.008.146-.007.5.002.999.001 1.499.009.193.003.387.025.568.099a.883.883 0 01.42.362c.164.264.203.55.166.857a1.062 1.062 0 01-.28.619 1 1 0 01-.713.332zm.086-1.512a.646.646 0 00-.385-.143c-.214-.008-.428-.008-.643-.009-.105-.001-.118.013-.12.124-.002.137 0 .274 0 .411 0 .137-.002.274 0 .411.002.118.021.14.139.136.23-.008.46-.026.691-.033a.486.486 0 00.233-.068c.314-.174.339-.63.085-.829zm-.363 10.321c.158.25.275.523.353.809.076.281.12.569.12.86.002.97.003 1.938 0 2.907a3.062 3.062 0 01-.166 1.014c-.261.744-.725 1.325-1.412 1.718a3.091 3.091 0 01-.77.313 3.686 3.686 0 01-.93.104c-1.172-.004-2.345-.002-3.518-.002h-.175v.16c0 1.035-.003 2.07.002 3.106.001.218-.017.433-.061.642-.075.355-.22.683-.433.983a2.636 2.636 0 01-1.053.861c-.117.056-.248.081-.372.122-.364.119-.739.108-1.113.086a2.174 2.174 0 01-.446-.078 2.539 2.539 0 01-1.684-1.411 2.719 2.719 0 01-.247-1.164c.002-1.044 0-2.087 0-3.131v-.176h-.171c-1.198 0-2.396-.003-3.593.002a3.122 3.122 0 01-2.447-1.09 3.204 3.204 0 01-.446-.676 2.936 2.936 0 01-.253-.761 3.33 3.33 0 01-.059-.631c-.006-.961-.004-1.921-.002-2.881a3.12 3.12 0 011.22-2.509c.273-.208.569-.373.892-.485.172-.06.354-.095.537-.127.304-.051.609-.036.913-.037 1.086-.003 2.172-.001 3.259-.001h.15v-.196c0-2.308.001-4.615-.001-6.923 0-.217.013-.433.057-.643.058-.283.162-.553.313-.799.235-.384.543-.698.938-.918.198-.111.405-.195.625-.255A3.072 3.072 0 019.984.012a2.54 2.54 0 011.361.517c.383.293.667.66.843 1.113.07.181.113.367.151.557.051.252.04.504.04.757l.001 6.723v.15h.147c1.206 0 2.412.002 3.618-.003.24 0 .48.016.713.063.255.053.505.136.741.256.533.267.959.653 1.279 1.157zM7.893 19.195l.001 2.681c0 .183-.001.362.037.545.037.177.095.344.183.495.33.562.832.845 1.475.879.152.009.303-.01.455-.034.335-.052.624-.193.868-.422.359-.336.552-.752.552-1.252v-2.955c0-.032-.006-.065-.01-.102H7.893v.165zM11.366 2.3a1.717 1.717 0 00-.407-.639 1.684 1.684 0 00-1.01-.483 2.287 2.287 0 00-.829.06 1.54 1.54 0 00-.739.444 1.698 1.698 0 00-.488 1.22v6.773c0 .045.005.09.007.143h3.564V5.601l.001-2.644c0-.225-.018-.443-.099-.657zm5.324 9.289a2.956 2.956 0 00-.697-.271 2.253 2.253 0 00-.582-.093c-3.811 0-7.622-.001-11.433.002a2.214 2.214 0 00-.514.058c-.206.051-.41.121-.605.206a2.288 2.288 0 00-1.038.878c-.045.072-.099.145-.109.238.013 0 .02.001.021-.001.022-.024.043-.05.063-.075a1.64 1.64 0 01.957-.565c.208-.045.422-.066.639-.065.834.006 1.668.003 2.502.003 3.365 0 6.73.001 10.095-.001.253 0 .5.033.744.1.305.082.563.239.777.471.025.027.061.044.093.065-.008-.029-.012-.06-.026-.085a2.204 2.204 0 00-.887-.865zm-3.469-5.448H16.3v.756h-3.074c-.012-.248-.004-.495-.005-.756zm.008-4.399c.085-.029 2.84-.042 3.07-.013v.751h-3.07v-.738zm.017 20.773c.021-.004.041-.009.061-.009l2.949.002c.011 0 .023.006.047.013.014.245.004.492.004.748H13.23v-.739l.007-.008c.003-.002.005-.006.009-.007zm4.233-1.633c.161-.002.322 0 .483-.001.08-.001.131.028.177.105.25.423.509.842.766 1.262.199.326.399.65.6.975.019.03.048.054.072.082a.37.37 0 00.029-.013v-2.398c.231-.02.447-.019.668-.003v3.68c-.04.005-.079.013-.118.013-.174.002-.347-.004-.521.004-.078.003-.122-.032-.158-.09-.192-.311-.383-.622-.573-.934-.216-.353-.43-.709-.646-1.063a5.107 5.107 0 00-.132-.206c-.023-.035-.053-.065-.081-.098-.01.005-.02.008-.031.012v2.369h-.642c-.029-.1-.036-3.516-.007-3.679.035-.005.074-.016.114-.017z"/></svg>

<svg 
 xmlns="http://www.w3.org/2000/svg"
 xmlns:xlink="http://www.w3.org/1999/xlink"
 width="24px" height="26px">
<path fill-rule="evenodd"  fill="rgb(0, 0, 0)"
 d="M23.545,15.706 C23.384,15.887 23.188,16.001 22.959,16.066 C22.736,16.128 22.508,16.156 22.277,16.156 C21.868,16.156 21.460,16.156 21.051,16.156 C21.011,16.156 20.970,16.156 20.906,16.156 C20.906,16.091 20.906,16.046 20.906,16.001 C20.907,14.867 20.907,13.732 20.907,12.599 C20.907,12.431 20.907,12.431 21.079,12.431 C21.503,12.431 21.929,12.423 22.353,12.434 C22.583,12.439 22.815,12.459 23.034,12.534 C23.226,12.600 23.394,12.713 23.529,12.867 C23.713,13.077 23.839,13.316 23.906,13.592 C23.978,13.893 24.016,14.196 23.992,14.503 C23.959,14.945 23.851,15.362 23.545,15.706 ZM23.231,14.048 C23.227,13.834 23.177,13.632 23.080,13.441 C23.036,13.355 22.971,13.289 22.898,13.225 C22.754,13.102 22.577,13.074 22.406,13.056 C22.185,13.034 21.960,13.048 21.738,13.046 C21.686,13.046 21.663,13.073 21.661,13.122 C21.660,13.155 21.659,13.189 21.659,13.222 C21.658,13.575 21.659,13.928 21.659,14.282 C21.659,14.647 21.658,15.013 21.659,15.378 C21.659,15.529 21.665,15.536 21.810,15.536 C22.089,15.535 22.371,15.551 22.647,15.490 C22.840,15.448 22.995,15.352 23.084,15.167 C23.184,14.960 23.230,14.739 23.232,14.509 C23.233,14.355 23.234,14.202 23.231,14.048 ZM19.899,8.627 C19.809,8.629 19.760,8.595 19.712,8.520 C19.478,8.163 19.238,7.811 18.999,7.457 C18.974,7.419 18.944,7.385 18.918,7.348 C18.811,7.194 18.660,7.108 18.479,7.080 C18.378,7.065 18.273,7.070 18.170,7.066 C18.109,7.065 18.080,7.097 18.080,7.158 C18.080,7.187 18.079,7.216 18.079,7.245 C18.079,7.648 18.080,8.052 18.080,8.455 C18.080,8.507 18.073,8.560 18.069,8.618 C17.828,8.618 17.598,8.618 17.358,8.618 C17.354,8.567 17.349,8.522 17.349,8.479 C17.348,7.348 17.347,6.218 17.347,5.088 C17.347,4.917 17.351,4.913 17.520,4.913 C17.966,4.912 18.411,4.911 18.857,4.915 C19.063,4.918 19.271,4.919 19.475,4.944 C19.881,4.993 20.176,5.165 20.322,5.621 C20.415,5.914 20.391,6.208 20.236,6.483 C20.115,6.697 19.931,6.829 19.703,6.907 C19.619,6.935 19.532,6.956 19.445,6.980 C19.438,6.991 19.431,7.002 19.424,7.013 C19.448,7.028 19.472,7.043 19.496,7.059 C19.744,7.219 19.920,7.446 20.076,7.691 C20.246,7.956 20.414,8.223 20.582,8.490 C20.603,8.525 20.617,8.563 20.641,8.612 C20.603,8.617 20.573,8.623 20.542,8.623 C20.328,8.625 20.113,8.620 19.899,8.627 ZM19.508,6.307 C19.602,6.165 19.639,6.015 19.582,5.839 C19.527,5.669 19.425,5.573 19.255,5.553 C19.056,5.530 18.855,5.517 18.655,5.499 C18.654,5.503 18.654,5.508 18.654,5.513 C18.518,5.513 18.381,5.513 18.246,5.513 C18.109,5.513 18.094,5.526 18.093,5.660 C18.092,5.887 18.092,6.116 18.095,6.344 C18.096,6.476 18.114,6.490 18.249,6.493 C18.587,6.498 18.924,6.490 19.261,6.449 C19.365,6.437 19.453,6.391 19.508,6.307 ZM19.155,2.493 C18.837,2.506 18.520,2.520 18.202,2.533 C18.089,2.537 18.080,2.544 18.079,2.667 C18.078,3.025 18.078,3.382 18.078,3.740 C18.078,3.773 18.080,3.807 18.077,3.840 C18.070,3.918 18.058,3.933 17.978,3.934 C17.809,3.936 17.639,3.936 17.470,3.936 C17.358,3.935 17.350,3.927 17.349,3.813 C17.347,3.560 17.346,3.306 17.347,3.052 C17.347,2.171 17.348,1.289 17.349,0.408 C17.349,0.351 17.349,0.293 17.349,0.222 C17.414,0.218 17.454,0.214 17.495,0.215 C17.995,0.217 18.494,0.216 18.994,0.224 C19.187,0.227 19.381,0.249 19.562,0.323 C19.741,0.396 19.881,0.522 19.982,0.685 C20.146,0.949 20.185,1.235 20.148,1.542 C20.119,1.783 20.030,1.987 19.868,2.161 C19.675,2.368 19.438,2.481 19.155,2.493 ZM19.241,0.981 C19.125,0.890 18.997,0.843 18.856,0.838 C18.642,0.830 18.428,0.830 18.213,0.829 C18.108,0.828 18.095,0.842 18.093,0.953 C18.091,1.090 18.093,1.227 18.093,1.364 C18.093,1.501 18.091,1.638 18.093,1.775 C18.095,1.893 18.114,1.915 18.232,1.911 C18.462,1.903 18.692,1.885 18.923,1.878 C19.008,1.876 19.084,1.851 19.156,1.810 C19.470,1.636 19.495,1.180 19.241,0.981 ZM18.878,11.302 C19.036,11.552 19.153,11.825 19.231,12.111 C19.307,12.392 19.351,12.680 19.351,12.971 C19.353,13.941 19.354,14.909 19.351,15.878 C19.350,16.224 19.300,16.566 19.185,16.892 C18.924,17.636 18.460,18.217 17.773,18.610 C17.530,18.749 17.275,18.853 17.003,18.923 C16.697,19.002 16.388,19.027 16.073,19.027 C14.901,19.023 13.728,19.025 12.555,19.025 C12.502,19.025 12.450,19.025 12.380,19.025 C12.380,19.088 12.380,19.136 12.380,19.185 C12.380,20.220 12.377,21.255 12.382,22.291 C12.383,22.509 12.365,22.724 12.321,22.933 C12.246,23.288 12.101,23.616 11.888,23.916 C11.614,24.302 11.255,24.579 10.835,24.777 C10.718,24.833 10.587,24.858 10.463,24.899 C10.099,25.018 9.724,25.007 9.350,24.985 C9.202,24.978 9.052,24.946 8.904,24.907 C8.677,24.847 8.462,24.762 8.261,24.643 C7.797,24.369 7.447,23.989 7.220,23.496 C7.049,23.126 6.972,22.738 6.973,22.332 C6.975,21.288 6.973,20.245 6.973,19.201 C6.973,19.148 6.973,19.095 6.973,19.025 C6.906,19.025 6.854,19.025 6.802,19.025 C5.604,19.025 4.406,19.022 3.209,19.027 C2.972,19.029 2.737,19.012 2.508,18.964 C2.184,18.896 1.873,18.783 1.582,18.615 C1.270,18.434 0.999,18.208 0.762,17.937 C0.583,17.732 0.438,17.504 0.316,17.261 C0.195,17.020 0.114,16.763 0.063,16.500 C0.022,16.294 0.005,16.080 0.004,15.869 C-0.002,14.908 0.000,13.948 0.002,12.988 C0.002,12.539 0.084,12.104 0.268,11.695 C0.485,11.212 0.799,10.803 1.222,10.479 C1.495,10.271 1.791,10.106 2.114,9.994 C2.286,9.934 2.468,9.899 2.651,9.867 C2.955,9.816 3.260,9.831 3.564,9.830 C4.650,9.827 5.736,9.829 6.823,9.829 C6.867,9.829 6.911,9.829 6.973,9.829 C6.973,9.748 6.973,9.690 6.973,9.633 C6.973,7.325 6.974,5.018 6.972,2.710 C6.972,2.493 6.985,2.277 7.029,2.067 C7.087,1.784 7.191,1.514 7.342,1.268 C7.577,0.884 7.885,0.570 8.280,0.350 C8.478,0.239 8.685,0.155 8.905,0.095 C9.260,-0.003 9.623,-0.018 9.984,0.012 C10.483,0.053 10.943,0.221 11.345,0.529 C11.728,0.822 12.012,1.189 12.188,1.642 C12.258,1.823 12.301,2.009 12.339,2.199 C12.390,2.451 12.379,2.703 12.379,2.956 C12.380,5.197 12.380,7.437 12.380,9.679 C12.380,9.723 12.380,9.768 12.380,9.829 C12.439,9.829 12.483,9.829 12.527,9.829 C13.733,9.829 14.939,9.831 16.145,9.826 C16.385,9.826 16.625,9.842 16.858,9.889 C17.113,9.942 17.363,10.025 17.599,10.145 C18.132,10.412 18.558,10.798 18.878,11.302 ZM7.893,19.195 C7.893,20.089 7.893,20.983 7.894,21.876 C7.894,22.059 7.893,22.238 7.931,22.421 C7.968,22.598 8.026,22.765 8.114,22.916 C8.444,23.478 8.946,23.761 9.589,23.795 C9.741,23.804 9.892,23.785 10.044,23.761 C10.379,23.709 10.668,23.568 10.912,23.339 C11.271,23.003 11.464,22.587 11.464,22.087 C11.464,21.102 11.464,20.117 11.464,19.132 C11.464,19.100 11.458,19.067 11.454,19.030 C10.268,19.030 9.090,19.030 7.893,19.030 C7.893,19.097 7.893,19.145 7.893,19.195 ZM11.366,2.300 C11.274,2.056 11.144,1.841 10.959,1.661 C10.677,1.386 10.346,1.225 9.949,1.178 C9.664,1.145 9.394,1.170 9.120,1.238 C8.827,1.311 8.585,1.471 8.381,1.682 C8.057,2.019 7.892,2.428 7.893,2.902 C7.894,5.160 7.893,7.417 7.893,9.675 C7.893,9.720 7.898,9.765 7.900,9.818 C9.088,9.818 10.267,9.818 11.464,9.818 C11.464,9.746 11.464,9.688 11.464,9.630 C11.464,8.287 11.464,6.945 11.464,5.601 C11.464,4.720 11.464,3.838 11.465,2.957 C11.465,2.732 11.447,2.514 11.366,2.300 ZM16.690,11.589 C16.470,11.466 16.236,11.382 15.993,11.318 C15.802,11.267 15.610,11.225 15.411,11.225 C11.600,11.225 7.789,11.224 3.978,11.227 C3.806,11.228 3.630,11.244 3.464,11.285 C3.258,11.336 3.054,11.406 2.859,11.491 C2.428,11.679 2.076,11.969 1.821,12.369 C1.776,12.441 1.722,12.514 1.712,12.607 C1.725,12.607 1.732,12.608 1.733,12.606 C1.755,12.582 1.776,12.556 1.796,12.531 C2.046,12.225 2.375,12.047 2.753,11.966 C2.961,11.921 3.175,11.900 3.392,11.901 C4.226,11.907 5.060,11.904 5.894,11.904 C9.259,11.904 12.624,11.905 15.989,11.903 C16.242,11.903 16.489,11.936 16.733,12.003 C17.038,12.085 17.296,12.242 17.510,12.474 C17.535,12.501 17.571,12.518 17.603,12.539 C17.595,12.510 17.591,12.479 17.577,12.454 C17.368,12.076 17.064,11.797 16.690,11.589 ZM13.221,6.141 C14.257,6.141 15.274,6.141 16.300,6.141 C16.300,6.394 16.300,6.641 16.300,6.897 C15.277,6.897 14.260,6.897 13.226,6.897 C13.214,6.649 13.222,6.402 13.221,6.141 ZM13.229,1.742 C13.314,1.713 16.069,1.700 16.299,1.729 C16.299,1.985 16.299,2.232 16.299,2.480 C15.272,2.480 14.255,2.480 13.229,2.480 C13.229,2.228 13.229,1.985 13.229,1.742 ZM13.246,22.515 C13.267,22.511 13.287,22.506 13.307,22.506 C14.290,22.506 15.273,22.507 16.256,22.508 C16.267,22.508 16.279,22.514 16.303,22.521 C16.317,22.766 16.307,23.013 16.307,23.269 C15.275,23.269 14.258,23.269 13.230,23.269 C13.230,23.018 13.230,22.775 13.230,22.530 C13.231,22.529 13.234,22.525 13.237,22.522 C13.240,22.520 13.242,22.516 13.246,22.515 ZM17.479,20.882 C17.640,20.880 17.801,20.882 17.962,20.881 C18.042,20.880 18.093,20.909 18.139,20.986 C18.389,21.409 18.648,21.828 18.905,22.248 C19.104,22.574 19.304,22.898 19.505,23.223 C19.524,23.253 19.553,23.277 19.577,23.305 C19.587,23.301 19.596,23.297 19.606,23.292 C19.606,22.497 19.606,21.701 19.606,20.894 C19.837,20.874 20.053,20.875 20.274,20.891 C20.274,22.124 20.274,23.341 20.274,24.571 C20.234,24.576 20.195,24.584 20.156,24.584 C19.982,24.586 19.809,24.580 19.635,24.588 C19.557,24.591 19.513,24.556 19.477,24.498 C19.285,24.187 19.094,23.876 18.904,23.564 C18.688,23.211 18.474,22.855 18.258,22.501 C18.216,22.432 18.172,22.363 18.126,22.295 C18.103,22.260 18.073,22.230 18.045,22.197 C18.035,22.202 18.025,22.205 18.014,22.209 C18.014,22.996 18.014,23.782 18.014,24.578 C17.788,24.578 17.579,24.578 17.372,24.578 C17.343,24.478 17.336,21.062 17.365,20.899 C17.400,20.894 17.439,20.883 17.479,20.882 Z"/>
</svg>
